X: 32986
T: Pretty Girls Of Mayo, The
R: reel
M: 4/4
K: Gmajor
DG G2 A2 de|fdge fdcA|DG G2 A2de|fdcA AGFA|
DG G2 A2 de|fdge fdcA|DG G2 A2de|fdcA AGBd||
g2 ag fddc|ABcA dBcA|g2 ag fdde|fdcA AG G2|
g3e fdde|fdge fdd^c|defg abag|fdcA BGAF||

